resources/svg/resources.svg

<svg xmlns="http://www.w3.org/2000/svg" viewBox="0 0 24 24" fill="currentColor"><path fill="none" stroke="currentColor" stroke-width="2" d="M12,3 L21,7.5 L12,12 L3,7.5 L12,3 Z M16.5,10.25 L21,12.5 L12,17 L3,12.5 L7.5,10.25 L7.5,10.25 M16.5,15.25 L21,17.5 L12,22 L3,17.5 L7.5,15.25 L7.5,15.25"/></svg>

<svg viewBox="0 0 24 24"><path fill="none" stroke="currentColor" stroke-width="2" d="M12 3l9 4.5l-9 4.5l-9-4.5L12 3zm4.5 7.25L21 12.5L12 17l-9-4.5l4.5-2.25h0m9 5L21 17.5L12 22l-9-4.5l4.5-2.25h0"/></svg>
